icons/Business/registered-fill.svg

<svg viewBox="0 0 24 24" xmlns="http://www.w3.org/2000/svg"><path d="M12 2C17.5228 2 22 6.47715 22 12C22 17.5228 17.5228 22 12 22C6.47715 22 2 17.5228 2 12C2 6.47715 6.47715 2 12 2ZM12.5 7H8V17H10V14H12.217L14.397 17H16.869L14.3191 13.4907C15.327 12.8763 16 11.7668 16 10.5C16 8.63144 14.5357 7.10487 12.692 7.00518L12.5 7ZM12.5 9C13.2797 9 13.9204 9.59489 13.9931 10.3555L14 10.5L13.9931 10.6445C13.925 11.3576 13.3576 11.925 12.6445 11.9931L12.5 12H10V9H12.5Z"/></svg>

<svg xmlns="http://www.w3.org/2000/svg" viewBox="0 0 24 24">
    <g>
        <path fill="none" d="M0 0h24v24H0z"/>
        <path d="M12 2c5.523 0 10 4.477 10 10s-4.477 10-10 10S2 17.523 2 12 6.477 2 12 2zm.5 5H8v10h2v-3h2.217l2.18 3h2.472l-2.55-3.51a3.5 3.5 0 0 0-1.627-6.486l-.192-.004zm0 2a1.5 1.5 0 0 1 1.493 1.356L14 10.5l-.007.144a1.5 1.5 0 0 1-1.349 1.35L12.5 12H10V9h2.5z"/>
    </g>
</svg>
